X:1
T:To Gratiana Dancing and Singing
T:W. Denis Browne 1888-1915
T:Richard Lovelace 1618-1657
T:To Gratiana Dancing and Singing
T:Copyright © 
T:Copyright © 
T:Copyright © 
T:Copyright © 
T:Copyright © 
T:Copyright © 
T:Copyright © 
T:Copyright © 
T:Copyright © 
T:Copyright © 
C:W. Denis Browne
C:1888-1915
Z:Richard Lovelace
Z:1618-1657
Z:Copyright ©
%%score 1 { ( 2 3 4 7 ) | ( 5 6 8 ) }
L:1/8
Q:1/4=100
M:4/4
K:G
V:1 treble nm="Voice" snm="Voice"
V:2 treble nm="Piano" snm="Pno."
V:3 treble 
V:4 treble 
V:7 treble 
V:5 bass 
V:6 bass 
V:8 bass 
V:1
 z8[Q:1/4=100] | z8 | z8 | z8 | z2 (d2- (3dc)B- (3A B-c | dB (e2- (3e2 d2) c2 | (3B2 A2 G2 AABc | %7
w: ||||See! _ _ with _ what _|con- stant mo _ _ tion|E- ven and glorious * as the|
 d3 z z4 | z2 (d2- (3dcB- (3AB-)c | dB (e2- (3e2 d2 c2 | (3B2 A2 G2 (3A2 B2) c2 | d3 B G4 | z8 | %13
w: sun,|Gra- * * * * * ti-|a- na steers _ _ _|_ _ _ _ _ that|no- ble frame,||
 G-ABc d4 | z4"^cresc." (A4 | (3A2) B2 c2 d2!f! d2 | gf (e2- (3edB (3AB)G | (3E2- F2 G2 D4 | %18
w: Soft _ as her breast,|Sweet|* as her voice, That|gave each wind- * * * * * ing|law _ and poise,|
 z2!p! D2 (3E2- F2 G2 | (3z2 A2 c2"^slower" !tenuto!B!tenuto!A !tenuto!G2 | z8 | z8 | z8 | z8 | %24
w: And swift- * er|than the wings of fame.|||||
!pp! G2 GG A3 A | (BA) G2 A4 | z2 dd c2 B2 | A3 G G4 | z8 | z4 (A4 | (3B2) c2 d2 c2 B2 | %31
w: Each step trod out a|lov- * er's thought|And th'am- bi- tious|hopes he brought,||Chain'd|_ to her brave feet|
 z A2 G G4 | z4 z2!p!"^cresc." F2 | (GAB)c d2 z2 | z2 z!p!"^cresc." G F3 F- | %35
w: with such arts;|Such|sweet _ _ com- mand|and gen- tle|
 G2"^,""^piu"!p! z G"^rit." G-A Bd | c2 z2 z2 B2 | z A2 G (D A2)"^rit." A | B-c d2 c2 B2 | %39
w: awe, As when _ she _|ceased, we|sigh- ing saw _ The|floor _ lay paved with|
 A3 G G4 | z8 | z8 | z8 |"^Tempo 1" z8 | z4 z2!f! d2- | (3d2 c2 B2 A4 | z4 z2 d2- | (3d2 f2 e2 G4 | %48
w: bro- ken hearts.|||||So|_ did she move;|So|_ did she sing|
 z2 d2- (3dcB (3((ABc) | d)B e2- e3 A | A2 (3BBA (3B2- c2 d2 | e3 G G4 | z4 z2!f! d2 | e3 e (g4- | %54
w: Like _ the har- mo- * *|* nious spheres _ that|bring Un- to their rounds _ their|mu- sic's aid:|Which|she per- form-|
 (3g2 f2) e2 f3 d | e2 z2 z2 d2 | (3g2 f2 e2 d3 d | E- F2 G D4 | %58
w: * * ed such a|way, As|all _ th'en- a- mour'd|world _ will say:|
"^piu lento" z2 z D!p! (3E2"^rit." F2 G2 | D2"^," dc BA G2 | z8 |] %61
w: * "The * ces|danced, * and A- lo- *||
V:2
 x2"^Piano""^sonoro ed un poco"!f!"^orte""^L.H.""^lontano" [Bdg]2 x2 [cega]2 | %1
 x2 [Bdfg]2 G2 [cega]2 | x2 [fbd']2 x2 [cegb]2 | x2 [Bdfa]2 x2 [ceg]2 | x2 [Bdg]2 x2 [cega]2 | %5
 x2 [Bdfg]2 [CG]2 [cega]2 | x2 [fbd']2 x2 [cegb]2 | x2 [Bdfa]2 x2 [ceg]2 | x2 [Bdg]2 x2 [cega]2 | %9
 x2 [Bdfg]2 G2 [cega]2 | x2 [fbd']2 x2 [cegb]2 | x2 [Bdfa]2 x2 [Aceg]2 | %12
!p! [GBeg]3 [GBeg] [FBef]2 [FBdf]2 | [EGde]3 [EGce] c2- B2 | %14
"^cresc" [GBfg]3 [GBeg] [FAef]2 [FAdf]2 | [EAde]3 [EGce] [Ad]2 [B,Gd]2 | %16
 [EGde]3 [EGce] [Ac]2 [GB]2 | [CEc]2 [B,DGB]2!>(! D4!>)! | x2!p! [gbd']2 x2 [cegb]2 | %19
 x2 [cdfa]2 x4 | x2 [Bdg]2 x2 [cega]2 | x2 [Bdfg]2 G2 [cega]2 | x2 [fbd']2 x2 [cegb]2 | %23
 x2 [Bdfa]2 x2 [Aceg]2 |!pp!"^marcato""^lontano"{/E} g3{/E} g{/F} a3{/F} a | %25
{/G} b{/F}a{/E} g2{/F} a3{/F} a |{/G} b{/A}c'{/B} d'2{/A} c'2{/G} b2 | x4 (F2 E2) | %28
"^piu"!pp!{/E} g3{/E} g{/F} a3{/F} a |{/G} b{/F}a{/E} g2{/F} a3{/F} a | %30
{/G} b{/A}c'{/B} d'2{/A} c'2{/G} b2 | x4 (E2 D2) |!8va(!{/e} g'3{/e} g'{/d} f'3!8va)!{/d} f' | %33
!8va(!{/c} e'3{/c} e'{/B} d'3{/B} d' | f2- e z e2- d x | d2-"^," c z"^rit. e dim." c2- B!8va)! z | %36
"^loco"{/c} e'3{/c} e'{/B} d'3{/B} d' | [Ac']2 [Gdgb]2 [=Fda]2"^rit." z{/F} a | %38
{/G} b{/A}c'{/B} d'2{/A} c'2{/G} b2 | x4{/E} g4 | G3 x5 | x4"^rit.""^cresc." z4 | %42
"^(hold silently)" [_EGA_e]8- | [EGAe]8 | %44
!mf!"^L.H.""^lontano" =E2"^sonoro" [Bdg]2 x2"^cresc." [c=efa]2 | BA G2 A3 G | %46
 x2 [fbd']2 x2 [cegb]2 | x2"^colla voce" [Bdfa]2 x2 [ceg]2 | x2 [Bdg]2 x2 [cega]2 | x2 [Bdfg]2 G4 | %50
 x2 [=fabd']2 x2 [df^gb]2 | x2 [^cega]2 x2 [A=ceg]2 |!f! [GBeg]3 [GBeg] [FBef]3 [FBdf] | %53
 [EGde]3 [EGce] [DGcd]3 [DGBd] | !>![GBfg]3 [GBeg] [FBef]3 [FAdf] | [Bd]2 [Ac]B [Ad]2 x2 | %56
 x4 [Ac]2 [GB][^FB] | [CEAc]2 [B,DGB]2"^piu lento" [A,A]3!p! [A,A] | Bc [=fabd']2 x2 [cegb]2 | %59
 x2 [DF]2 x4 | z4!8va)!!8va(! [gd'g'b']4 |] %61
V:3
 D2 [B,D]2 E2 [CE]2 | [DF]2 [DF]2 A2 [EG]2 | [DF]2 [FB]2 [Gc]2 [EG]2 | [DF]2 [DF]2 [DF]2 [CE]2 | %4
 D2 [B,D]2 E2 [CE]2 | [DF]2 [DF]2 x2 [EG]2 | [DF]2 [FB]2 G2 [EG]2 | [DF]2 [DF]2 [DF]2 [CE]2 | %8
 D2 [B,D]2 E2 [CE]2 | [DF]2 [DF]2 x2 [EG]2 | [DF]2 [FB]2 G2 [EG]2 | [DF]2 [DF]2 [DF]2 [CE]2 | x8 | %13
 z4 [DGd]4 | x8 | x4 DC x2 | x4 [Dd]3 [Dd] | x4 [A,A]3 [A,A] | [DG]2 B2 [EG]2 [EG]2 | %19
 [DG]2 [DF]2 x4 | D2 [B,D]2 E2 [CE]2 | [DF]2 [DF]2 x2 [EG]2 | [DF]2 [FB]2 G2 [EG]2 | %23
 [DF]2 [B,D]2 [DF]2 [CE]2 | x8 | x8 | x8 |{/F} a3{/F} g{/F} g4 | x8 | x8 | x8 | %31
{/F} a3{/E} g{/E} g4 |!8va(! x7!8va)! x |!8va(! x8 |{/F} g3{/E} g{/E} f3{/D} f | %35
{/D} e3{/C} e{/C} d3!8va)!{/B,} d | x8 | ef x2 g=f x2 | x8 |{/F} a3{/E} g (E3 !tenuto!D) | %40
 !tenuto!D!tenuto!C !tenuto!B,2 x4 | x8 | x8 | x8 | B,4 [C=E]2 [CE]2 | [DF]2 [DF]2 C4 | %46
 [DF]2 [FB]2 G2 [EG]2 | [DF]2 [B,D]2 [DF]2 [CE]2 | [B,E]2 [B,D]2 E2 [CE]2 | %49
 [DF]2 [DF]2 [^CF]2 [CE]2 | [=FA]2 [FB]2 [D^F]2 [DF^G]2 | [^CF]2 [CE]2 [DF]2 [=CE]2 | x8 | x8 | %54
 x8 | [Ee]3 [_F_f] DC [B,Gd]2 | [EGde]3 [EGce] [Dd]3 [Dd] | x4 [DG]4 | %58
 [=FA]2 [FAB]2 [EGA]2 [^CEG]2 | [EG]2 [=cdfa]2 !tenuto![B,DF]!tenuto![A,CE] !tenuto![G,B,D]2- | %60
 [G,B,DG]6!8va)!!8va(! z2 |] %61
V:4
 G3 G A3 A | BA G2 C2 x A | Bc d2 x2 B2 | A3 G G4 | G3 G A3 A | BA G2 A3 A | Bc d2 c2 B2 | %7
 A3 G G4 | G3 G A3 A | BA G2 C4 | Bc d2 c2 B2 | A3 G G4 | x8 | x8 | x8 | x8 | x8 | x8 | %18
 Bc d2 c2 B2 | A3 G G4 | G2 x G A2 x A | BA G2 C4 | Bc d2 c2 B2 | A3 G A4 | x8 | x8 | x8 | x8 | %28
 x8 | x8 | x8 | x8 |!8va(! x7!8va)! x |!8va(! x8 | x8 | x7!8va)! x | x8 | x8 | x8 | x8 | x8 | x8 | %42
 x8 | x8 | G2 x G A3 A | x2 [Bdfg]2 G2 [cega]2 | Bc d2 c2 B2 | A3 G G4 | G3 G A3 A | %49
 BA G2 x2 [^cega]2 | x2 d2 c2 B2 | A3 G G4 | x8 | x8 | x8 | x8 | x8 | x8 | x2 d2 c2 B2 | C4 x4 | %60
 x4!8va)!!8va(! x4 |] %61
V:5
 !tenuto!G,3 !tenuto!G, !tenuto!A,3 !tenuto!A, | %1
 !tenuto!B,!tenuto!A, !tenuto!G,2 !tenuto!A,3 !tenuto!A, | %2
 !tenuto!B,!tenuto!C !tenuto!D2 !tenuto!C2 !tenuto!B,2 | !tenuto!A,3 !tenuto!G, !tenuto!G,4 | %4
 G,3 G, A,3 A, | B,A, G,2 A,3 A, | B,C D2 C2 B,2 | A,3 G, G,4 |"^cresc." G,3 G, A,3 A, | %9
 B,A, G,2"^Melody based on an anonymous Allmayne in Elizabeth Rogers' Virginal Book (17th Century)" A,3 A, | %10
 B,C D2 C2 B,2 | A,3 G, G,4 | z2 [G,B,E]2 z2 [F,B,D]2 | z2 [E,G,C]2 z2 [D,G,B,]2 | %14
 z2 [G,B,^CE]2 z2 [F,A,D]2 | z2 [E,G,=C]2 [D,,A,,F,]2!f! G,F, | z2 [E,G,C]2 F,2 G,2 | %17
 E,F, [D,G,]2 G,2 F,2 | B,C D2 C2 B,2 | [D,,A,,D,]4"^-""^-""^-" [G,,,D,,B,,]4 | %20
"^Sonore ed un poco"!f!"^orte" !tenuto!G,3 !tenuto!G, !tenuto!A,3 !tenuto!A, | %21
 !tenuto!B,!tenuto!A, !tenuto!G,2 !tenuto!A,3 !tenuto!A, | %22
 !tenuto!B,!tenuto!C !tenuto!D2 !tenuto!C2 !tenuto!B,2 | !tenuto!A,3 !tenuto!G, !tenuto!G,4 | %24
 [G,,,D,,B,,]2 [D,G,B,D]2 [C,,F,,E,]2 [F,A,CE]2 | [D,,B,,F,]2 [F,B,D]2 [E,,A,,C,G,]2 [A,CG]2 | %26
 [D,,B,,F,]2 [A,B,DF]2 [E,,C,G,]2 [A,CE]2 | [B,,,F,,D,]2 [F,B,D]2 [C,,G,,E,]2 [G,C]2 | %28
 [G,,,D,,B,,]2 [D,G,B,D]2 [E,,A,,^C,G,]2 [G,A,^CE]2 | %29
 [D,,B,,F,]2 [F,B,D]2 [E,,A,,^C,G,]2 [G,A,^CE]2 | [D,,G,,B,,=F,]2 [B,D=FA]2 [=C,,A,,E,]2 [A,=CE]2 | %31
 [D,,C,E,]2 [^F,A,CE]2 [G,,,D,,B,,]2 [D,G,B,]2 | %32
"^lontano possibile"!pp! [E,,B,,G,]2 [G,B,EG]2 [B,,,F,,D,]2 [F,B,DF]2 | %33
 [C,,G,,E,]2 [E,G,CE]2 [G,,,D,,B,,]2 [D,G,B,D]2 | [E,,B,,^C,G,]2 [B,^CG]2 [B,,,F,,D,]2 [F,B,DF]2 | %35
 [=C,,G,,E,]2 [E,G,A,=C]2 [D,,B,,F,]2 [F,B,D]2 | [E,,C,G,]2 [G,CE]2 [E,,B,,^G,]2 [G,B,DF]2 | %37
 [A,,E,C]2 [=G,D]2 [D,A,D]4 | [G,,,D,,B,,]2 [B,D=FA]2 [C,,A,,E,]2 [G,A,CE]2 | %39
 [D,,C,E,]2 [^F,CE]2 [D,,B,,=F,]2 [F,G,B,]2 | G,4 G,4 | %41
 [G,B,]!tenuto![F,A,] [=E,,B,,]2!ped-up!!ped!!>)!!>(! !>![=F,,-=C,_E,-G,A,-]4 | %42
 [F,,C,E,G,A,]2 z2 z4 |!pp! z4 =F,,,2 _E,,,2 | G,3 G, A,3 A, | B,A, G,2 A,3 A, | B,C D2 C2 B,2 | %47
 A,3 G, G,4 | G,3 G, A,3 A, | B,A, G,2 A,3 A, | B,=C D2 C2 B,2 | A,3 G, G,4 | %52
 z2 [G,B,E]2 z2 [F,B,D]2 | z2 [E,G,C]2 z2 [D,G,B,]2 | z2 [G,B,^CE]2 z2 [F,B,D]2 | %55
 x2 A,G, x2 =G,F, | z2 [E,G,C]2 F,2 G,^G, | A,F, G,2 G, =F,3 | B,C D2 C2 B,2 | %59
"^colla voce" A,3 G, G,4 | x4!pp!"^Feb: 1913""^Feb: 1913" [G,DB]4 |] %61
V:6
 [G,,,D,,B,,]4 [C,,G,,E,G,]4 | [D,,B,,F,]4 [E,,C,G,]4 | [D,,B,,F,]4 [E,,C,G,]4 | %3
 [B,,,F,,D,]4 [C,,G,,E,]4 | [G,,,D,,B,,]4 [C,,G,,E,G,]4 | [D,,B,,F,]4 [E,,C,G,]4 | %6
 [D,,B,,F,]4 [E,,C,G,]4 | [B,,,F,,D,]4 [C,,G,,E,]4 | [G,,,D,,B,,]4 [C,,G,,E,G,]4 | %9
 [D,,B,,F,]4 [E,,C,G,]4 | [D,,B,,F,]4 [E,,C,G,]4 | [B,,,F,,D,]4 [A,,,E,,C,]4 | %12
 [E,,B,,G,]4 [B,,,F,,D,]4 | [C,,G,,E,]4 [G,,,D,,G,,]4 | [E,,^C,G,]4 [B,,,F,,D,]4 | %15
 [=C,,G,,E,]4 x2 [G,,D,]2 | [C,,G,,E,]4 [B,,D,]4 | A,,2 B,,C, D,4 | [G,,,D,,B,,]4 [C,,G,,E,]4 | %19
 A,3 G, G,4 | [G,,,D,,B,,]4 [C,,G,,E,G,]4 | [D,,B,,F,]4 [E,,C,G,]4 | [D,,B,,F,]4 [E,,C,G,]4 | %23
 [B,,,F,,D,]4 [C,,G,,E,]4 | x8 | x8 | x8 | x8 | x8 | x8 | x8 | x8 | x8 | x8 | x8 | x8 | x8 | %37
 x2 B,,C, x4 | x8 | x8 | [E,,C,]2 [D,,D,]2 [^C,,_E,]2 [=C,,=E,]2 | [B,,,^D,] x !tenuto![E,G,]2 x4 | %42
 [=F,C=F]8- | [F,CF]8 | D,,,4 [D,,A,,=E,G,]4 | [D,,B,,F,]4 [E,,C,G,]4 | [D,,B,,F,]4 [E,,C,G,]4 | %47
 [B,,,F,,D,]4 [C,,G,,E,]4 | [G,,,D,,B,,]4 [C,,G,,E,G,]4 | [D,,B,,F,]4 [E,,A,,^C,G,]4 | %50
 [D,,B,,=F,]4 [E,,B,,^F,]4 | [A,,,E,,^C,G,]4 [A,,,E,,=C,]4 | [E,,B,,G,]4 [B,,,F,,D,]4 | %53
 [C,,G,,E,]4 [G,,,D,,G,,]4 | [E,,B,,^C,G,]4 [B,,,F,,D,]4 | %55
 [=C,,G,,E,]2 [=C,E,]2 [D,,A,,_G,]2 [=G,,D,]2 | [C,,G,,E,]4 [B,,D,]4 | [A,,E,]2 [B,,D,]C, D,4 | %58
 [G,,,D,,B,,]4 [C,,A,,E,]2 z [A,,,E,,A,,] | [D,,A,,D,]4 [G,,,D,,B,,]4- | [G,,,D,,B,,]6 z2 |] %61
V:7
 x8 | x8 | x8 | x8 | x8 | x8 | x8 | x8 | x8 | x4 A3 A | x8 | x8 | x8 | x8 | x8 | x8 | x8 | x8 | %18
 x2 GF x4 | x8 | x8 | z4 A3 A | x8 | x8 | x8 | x8 | x8 | x8 | x8 | x8 | x8 | x8 | %32
!8va(! x7!8va)! x |!8va(! x8 | x8 | x7!8va)! x | x8 | x8 | x8 | x8 | x8 | x8 | x8 | x8 | x2 D2 x4 | %45
 x8 | x8 | x8 | x8 | x4 A3 A | B=c x6 | x8 | x8 | x8 | x8 | x8 | x8 | x8 | x8 | A3 G G4- | %60
 x4!8va)!!8va(! x4 |] %61
V:8
 x8 | x8 | x8 | x8 | x8 | x8 | x8 | x8 | x8 | x8 | x8 | x8 | x8 | x8 | x8 | x8 | x8 | x8 | x8 | %19
 x4 [B,DF][A,CE] [G,B,D]2 | x8 | x8 | x8 | x8 | x8 | x8 | x8 | x8 | x8 | x8 | x8 | x8 | x8 | x8 | %34
 x8 | x8 | x8 | x8 | x8 | x8 | x2 z G, !tenuto!A,3 !tenuto!A, | x8 | x8 | x8 | x8 | x8 | x8 | x8 | %48
 x8 | x8 | x8 | x2 x x x4 | x8 | x8 | x8 | x8 | x8 | x8 | x8 | x8 | x8 |] %61

